svgs/hypehype.svg

<svg width="192" height="192" viewBox="0 0 192 192" fill="none" xmlns="http://www.w3.org/2000/svg">
<rect width="192" height="192" fill="#1E1E1E"/>
<g clip-path="url(#clip0_0_1)">
<path d="M108.758 84.8156C102.25 68.2934 83.5796 60.1754 67.0573 66.6837C50.5351 73.192 42.4172 91.862 48.9255 108.384" stroke="black" stroke-width="14"/>
<path d="M23 42.5686L53.6392 120.351" stroke="black" stroke-width="14" stroke-linecap="round"/>
<path d="M108.758 84.8156L113.472 96.7821" stroke="black" stroke-width="14" stroke-linecap="round"/>
<path d="M83.2421 107.65C89.7504 124.172 108.42 132.29 124.943 125.781C141.465 119.273 149.583 100.603 143.075 84.081" stroke="black" stroke-width="14"/>
<path d="M169 149.897L138.361 72.1145" stroke="black" stroke-width="14" stroke-linecap="round"/>
<path d="M83.2422 107.65L78.5285 95.6831" stroke="black" stroke-width="14" stroke-linecap="round"/>
</g>
<defs>
<clipPath id="clip0_0_1">
<rect width="160" height="160" fill="white" transform="translate(16 16)"/>
</clipPath>
</defs>
</svg>

<svg xmlns="http://www.w3.org/2000/svg" width="192" height="192" fill="none" viewBox="0 0 192 192"><g stroke="#000" stroke-width="14" clip-path="url(#a)"><path d="M108.758 84.816c-6.508-16.523-25.178-24.64-41.7-18.132-16.523 6.508-24.64 25.178-18.133 41.7"/><path stroke-linecap="round" d="m23 42.569 30.64 77.782m55.118-35.535 4.714 11.966"/><path d="M83.242 107.65c6.508 16.522 25.178 24.64 41.701 18.131 16.522-6.508 24.64-25.178 18.132-41.7"/><path stroke-linecap="round" d="m169 149.897-30.639-77.782M83.242 107.65l-4.714-11.967"/></g><defs><clipPath id="a"><path fill="#fff" d="M16 16h160v160H16z"/></clipPath></defs></svg>
